X: 393d
T: The Gold Rush
C: Bill Monroe
C: arranged by Andy Leftwich
S: Youtube video: http://au.youtube.com/watch?v=OSv5d0WYEhA
S: MandoZine TablEdit Archives 
S: GoldRush-Leftwich-A.tef
Z: TablEdited by Steve Keating for MandoZine
L: 1/8
Q: 500
M: 4/4
K: A
 "1st break"z2 EF AB cd | e2 e2 ed cd | "A"de ee e2 ef | =gf ed cB AF | DE EF ED CB, |
 A,B, CE A2 AB | cB Ac BA FD | "E"EF Ac BA FA | "A"A2 EF AB cd |
 e2 de ed cd | e2 ee e2 ef | =gf ed cB AF | DE Ee E2 CB, |
 A,2 A,=G, A,B, CE | AB cd ed cA | "E"(3B=cB A^c BA FB | "A"AD FA A2 cB |
 AB AF E2 DE | "D"E/F/A zF "A"E2 ED | EF AB AF AF | AB Bc ze cB |
 AB A=G FE D=F | "D"Fd z2 "A"Bc zc | zB zE "E"(3B=cB AF | "A"A2 A2 A2 c'b |
 a2 ab af zA | "D"ef d'e "A"bc' ec' | zb AA af Af |
 zA ef ed cA | Bc de cB AE | "D"FA zF "A"E2 EF | E2 CE "E"DC B,=G, | "A"A,8 |

 "2nd break"z2 EF AB cd | e2 de ed cd | de ee eA ef | f=g Af e2 zd | c2 DB z2 A2 |
 z=G =z2 F2 z=F | =zE D=G, A,B, CD | EF =GA Bd cA | AF ED EF =GA |
 Bc d^d eB c=d | de =f=f =g2 AB | cd ef =g=g f=g | aA bc' Ac' zc' |
 e'd' aa =c'^c' a=g | eB de cB AE | =GA zD CB, A,=G, | A,2 A,B, CD EF |
 A2 Bc cB A=F | Fd AE =c^c BA | EF =GA B=G AB | Bc d^d e2 ef |
 =g=g fd ed cA | FD/F/ D2 =c^c dc | AE =GA ^D=D (3=CD=C | A,2 (3D^D=D =C^C DC |
 A,=G, A,2 A,A, A,B, | CD EF =GA Bd | cB A=G E=G AB | Bc ce cA Ac |
 ed cB AF E=F | FA zF E2 ED | EF AB cA FB | AF E=C ^CE =CB, | A,8 |

 "3rd break"zG, (3A,CD (3E=GA Bc | df de zd cd | e2 de eE FA | AF =GA Bd =g2 | =z=g AA fe de |
 zA dc AE DE | FA Bd cA =GE | DA, =CD ^D=D =C^C | A,2 DE =GA B=G |
 AG, A,G, A,B, =CD | EF =GA B^G, A,^G, | A,B, =CD EF =G=G | (3BAB (3dBd (3fef (3eff |
 a2 af ed cA | Bc dB c/B/A =GF | ED E=G ED =C^C | A,2 A,G, A,B, CD |
 EF =GA B=c ^ce | dc d^d e2 ef | =g=g fd ed cA | Bc dd (3cBA z2 |
 zA dd c2 zd | zd cA EF =GA | Bc de ed =c^c | A2 AD E=G =c^c |
 ^zD (3E=GA =c^c A=G | (3E=GA d2 =c^c A=G | E=G =c/^c/A ED =C^C | DE =GA zE D=C |
 A,G, A,B, CD E=F | Fd AB de ae | =g^d e=c =dA =c^c | AE =GA ED =C^C | A,8 |

 "4th break"zD EF AB cd | e2 de ed cd | de ee e2 ef | f/=g/f ed cB AF | DE EA ED CB, |
 A,B, CE A2 AB | Bc/B/ Ac BA FD | AF Ac BA FB | AD EF AB cd |
 de ze e2 d/e/f | =ge =g2 ze ze | ze ee zd ze | dc ze cB ze |
 dd de dd dc | ze cB ze BA | FD EF GA BG | A2 GA Ae cB |
 AB AF EC DE | FA zF E2 ED | A,G, A,B, C2 AB | Bc ze cA dc |
 AE DE AF ED | =F/^F/A zF E2 zD | EF Ac BA FA | A2 GA e2 c[eB] |
 AB A=G FE (3DEF | d2 zE cB AF | EF Ac BB A2 | Bc ce c2 ed |
 cB A=G FE (3DEF | d2 (3DE=G =c^c A=G | E=G A=G ED =C^C | A,2 AB ce fg | a8 | z8 |

% ==========================================================================================================

